X:1
T:When the Curtains Are Lifted
T:When the Curtains Are Lifted
T:William James Kirkpatrick
T:Sarah Ann Turner Wittenmyer, 1890
T:Public Domain Courtesy of the Cyber Hymnal™
T:Public Domain Courtesy of the Cyber Hymnal™
C:William James Kirkpatrick
Z:Public Domain
Z:Courtesy of the Cyber Hymnal™
%%score ( 1 2 ) ( 3 4 )
L:1/8
Q:1/4=112
M:3/4
K:Db
V:1 treble 
V:2 treble 
V:3 bass 
V:4 bass 
V:1
 [DF]>[DE] | D2 [DF]2 [GB]2 | [FA]2 [DF]2 [FA]2 | [Fd]2 [Ac]2 [GB]2 | [FA]4 [FA]>[FA] | %5
w: 1.~When the|cur- tains are|lift- ed, oh,|what shall I|see? Will my|
w: 2.~Will the|heav- en- ly|ci- ty burst|full on my|sight? And the|
w: 3.~Now the|fu- ture is|hid- den, I|see but a|pace, Yet it|
w: 4.~When His|glo- ri- fied|pre- sence shall|glad- den my|eyes, I’ll be|
 [EA]2 [CE]2 [DF]2 | [EG]2 [=DF]2 [EG]2 | [GB]2 [FA]2 [EG]2 | [DF]4 [DF]>[EG] | [FA]2 [FA]2 [FA]2 | %10
w: Lord with His|an- gels be|wait- ing for|me? Will He|wel- come my|
w: throne of His|glo- ry that|giv- eth it|light? Will the|feet torn and|
w: may be I’m|near- ing the|end of the|race; It will|mat- ter but|
w: changed and be|like Him, and|with Him a-|rise; And the|hands hard with|
 [FA]2 [DF]2 [FA]2 | [Fd]2 [Fd]2 [Gd]2 | [Fd]4 [FA]>[FA] | [GB]2 [Gd]2 [GB]2 | [FA]2 [DF]2 [FA]2 | %15
w: com- ing, and|crown me His|own, With the|saints of all|ag- es, that|
w: wea- ry reach|pave- ments of|gold? And the|eyes red with|weep- ing the|
w: lit- tle what|chang- es may|come, If my|Lord with His|an- gels shall|
w: la- bor a|vic- tor’s palm|raise; And the|lips tuned to|sor- row sing|
 [Gc]2 [GB]2 [Gc]2 | [Fd]4 ||"^Refrain" F>E | D2 F2 B2 | A2 F2 A2 | [Fd]2 [Fd]2 [Gd]2 | %21
w: cir- cle His|throne?|||||
w: Sav- ior be-|hold?|(1–3)When the|cur- tains are|lif- ted, oh|what shall I|
w: wel- come me|home.|(4)When the|cur- tains are|lift- ed, oh,|this shall I|
w: an- thems of|praise.|||||
 [Fd]4 [FA]>[FA] | [GB]2 [Gd]2 [GB]2 | [FA]2 [DF]2 [FA]2 | [DA]2 [CG]2 [DF]2 | %25
w: ||||
w: see? Will my|Lord and His|an- gels be|wai- ting for|
w: see, That my|Lord and His|an- gels are|wait- ing for|
w: ||||
 !fermata![CE]4 [GA]2 | [FA]6- | [FA]2 [DF]2 [FA]2 | [GB-]6 | [Bd]2 [Ac]2 [GB]>[GB] | %30
w: |||||
w: me? Be|wait-|* ing, be|wait-|* ing, Will my|
w: me, Are|wait-|* ing, are|wait-|* ing, That my|
w: |||||
 [FA]2 [Ad]2 [Af]2 | [Ge]2 [GB]2 [Gc]2 | [Fd]3 [Fd] [Gd]2 | !fermata![Fd]4 |] %34
w: ||||
w: Lord and His|an- gels be|wai- ting for|me?|
w: Lord and His|an- gels are|wait- ing for|me!|
w: ||||
V:2
 x2 | D2 x4 | x6 | x6 | x6 | x6 | x6 | x6 | x6 | x6 | x6 | x6 | x6 | x6 | x6 | x6 | x4 || F>E | %18
 D2 F2 B2 | A2 F2 A2 | x6 | x6 | x6 | x6 | x6 | x6 | x6 | x6 | x6 | x6 | x6 | x6 | x6 | x4 |] %34
V:3
 [D,A,]>[D,G,] | [D,F,]2 [D,A,]2 [D,D]2 | [D,D]2 [D,A,]2 [D,D]2 | [D,A,]2 [D,A,]2 (B,C) | %4
 [D,D]4 [D,A,]>[D,A,] | [A,,A,C]2 [A,,A,]2 [A,,A,]2 | [A,,A,]2 [A,,A,]2 [A,,A,]2 | %7
 [A,,A,]2 [B,,A,]2 [C,A,]2 | [D,A,]4 [D,A,]>[D,A,] | [D,D]2 [D,D]2 [D,D]2 | [D,D]2 [D,A,]2 [D,D]2 | %11
 [D,A,]2 [D,A,]2 [D,B,]2 | [D,A,]4 [D,D]>[D,D] | [G,D]2 [G,B,]2 [G,D]2 | [D,D]2 [D,A,]2 [D,D]2 | %15
 [A,E]2 [A,E]2 A,2 | [D,A,]4 || F,>E, | D,2 F,2 B,2 | A,2 F,2 A,2 | [D,A,]2 [D,A,]2 [D,__B,]2 | %21
 [D,A,]4 [D,D]>[D,D] | [G,D]2 [G,B,]2 [G,D]2 | [D,D]2 [D,A,]2 [D,D]2 | [F,A,]2 [E,A,]2 [D,A,]2 | %25
 !fermata![A,,A,]4 [A,C]2 | [D,D]2 [D,D]2 [D,D]2 | [D,D]2 z2 [D,D]2 | [G,D]2 [G,D]2 [G,D]2 | %29
 [G,D]2 z2 [G,D]>[G,D] | [A,D]2 [F,D]2 [D,D]2 | [G,B,]2 [G,E]2 [A,E]2 | [D,D]3 [D,A,] [D,B,]2 | %33
 [D,A,]4 |] %34
V:4
 x2 | x6 | x6 | x4 D,2 | x6 | x6 | x6 | x6 | x6 | x6 | x6 | x6 | x6 | x6 | x6 | x4 A,2 | x4 || %17
 F,>E, | D,2 F,2 B,2 | A,2 F,2 A,2 | x6 | x6 | x6 | x6 | x6 | x6 | x6 | x6 | x6 | x6 | x6 | x6 | %32
 x6 | x4 |] %34

